svg_80x80/huey.svg

<svg viewBox="0 0 80 80" xmlns="http://www.w3.org/2000/svg">
<rect width="100%" height="100%" fill="white"/>
<path fill-rule="evenodd" clip-rule="evenodd" d="M49.0401 43.2918H57.201V30.4396H61.8147V54.0414H44.5006V49.8293H57.1166V47.811H16.8826V34.8204H8.78245V47.6321H4.08438C4.07697 47.4744 4.06724 47.3134 4.05737 47.1501C4.03576 46.7927 4.0135 46.4243 4.0135 46.056L4 24H8.63395V30.308H22.124V43.2749H30.2242V30.4565H49.0401V43.2918ZM43.6738 34.7968H35.7694V36.6058H43.6738V34.7968ZM35.739 43.3019H44.3521V41.1588H35.739V43.3019Z" fill="black"/>
<path d="M66.4284 32.6638V37.7027H76V39.9471H64.0523V30.4463H73.6004V28.0298H64.0287V25.7888H75.973V32.6638H66.4284Z" fill="black"/>
</svg>

<svg xmlns="http://www.w3.org/2000/svg" viewBox="0 0 80 80">
  <rect width="100%" height="100%" fill="#fff"/>
  <path fill-rule="evenodd" d="M49 43.3h8.2V30.4h4.6V54H44.5v-4.2h12.6v-2H17v-13H8.8v12.8H4a36.3 36.3 0 0 0 0-1.5L4 24h4.6v6.3h13.5v13h8.1V30.5H49v12.8Zm-5.3-8.5h-8v1.8h8v-1.8Zm-8 8.5h8.7v-2.1h-8.7v2.1Z" clip-rule="evenodd"/>
  <path d="M66.4 32.7v5H76v2.2H64v-9.5h9.6V28H64v-2.2h12v6.9h-9.6Z"/>
</svg>
